src/img/icons/results-mobile.svg

<?xml version="1.0" encoding="UTF-8"?>
<svg width="16px" height="16px" viewBox="0 0 16 16" version="1.1" xmlns="http://www.w3.org/2000/svg" xmlns:xlink="http://www.w3.org/1999/xlink">
    <!-- Generator: Sketch 61.2 (89653) - https://sketch.com -->
    <title>search/mobile</title>
    <desc>Created with Sketch.</desc>
    <g id="Page-1" stroke="none" stroke-width="1" fill="none" fill-rule="evenodd">
        <g id="icon/S/Search/Mobile-Copy">
            <g id="icon">
                <g id="Group">
                    <rect id="Rectangle" x="0" y="0" width="16" height="16"></rect>
                    <path d="M11.5,0 C12.3284271,0 13,0.671572875 13,1.5 L13,14.5 C13,15.3284271 12.3284271,16 11.5,16 L4.5,16 C3.67157288,16 3,15.3284271 3,14.5 L3,1.5 C3,0.671572875 3.67157288,0 4.5,0 L11.5,0 Z M11,3 L5,3 L5,12 L11,12 L11,3 Z" id="Shape" fill="#909099"></path>
                </g>
            </g>
        </g>
    </g>
</svg>

<svg xmlns="http://www.w3.org/2000/svg" width="16" height="17" viewBox="0 0 16 17">
    <g fill="none" fill-rule="evenodd">
        <path d="M0 0H16V16H0z" transform="translate(0 1)"/>
        <path fill="#909099" d="M11.5 0c.828 0 1.5.672 1.5 1.5v13c0 .828-.672 1.5-1.5 1.5h-7c-.828 0-1.5-.672-1.5-1.5v-13C3 .672 3.672 0 4.5 0h7zM11 3H5v9h6V3z" transform="translate(0 1)"/>
    </g>
</svg>
